X:48
T: O KOENIGIN, LIEB MUTTER MEIN
N: Z0049
O: Europa, Mitteleuropa, Deutschland, Niederrhein
R: Sagen - Lied, Romanze, Tod
M: 6/8
L: 1/16
K: D
DE | =F4E2D4AB | =c4B2A4
A2 | G4c2B4A2 | B2A2^G2A4
A2 | A2G2AG=F2G2A2 | G2=F2E2F4
FD | =C4=F2E2F2D2 | C2D2E2D4

